X: 10118
T: Digging For Gold
R: jig
M: 6/8
K: Dmajor
F|DFA AFA|dcd edB|AdB AFD|EFE EDB,|
DFA AFA|dcd edB|AdB AFA|Bdc d2:|
A|dfa afd|BdB BAF|DFA dAF|EFE EFA
[1 dfa afd|BdB BAF|AdB AFA|Bdc d2:|
[2 BAF EFE|DB,A, DFA|BdB AFA|DED D2||

